raw/symbols/lqty.svg

<svg width="42" height="42" viewBox="0 0 42 42" fill="none" xmlns="http://www.w3.org/2000/svg">
<rect width="42" height="42" rx="21" fill="#F3F3F3"/>
<path d="M20.2328 31.6082C26.0946 31.6082 30.8465 26.8563 30.8465 20.9945C30.8465 15.1328 26.0946 10.3809 20.2328 10.3809C14.371 10.3809 9.61914 15.1328 9.61914 20.9945C9.61914 26.8563 14.371 31.6082 20.2328 31.6082Z" fill="#2EB6EA"/>
<path d="M20.1749 31.6086C9.61886 31.6086 5.45274 17.7215 14.7769 11.8691C13.668 23.4758 19.5667 23.7326 25.0405 23.4758C34.2126 23.0456 34.2187 31.6086 34.2187 31.6086H20.1749Z" fill="#1542CD"/>
<path fill-rule="evenodd" clip-rule="evenodd" d="M30.265 24.4668C28.6681 28.5594 24.7414 31.486 20.115 31.6163C20.2237 31.6193 20.3332 31.6208 20.4433 31.6208H34.399C34.399 31.6208 34.3954 26.6019 30.265 24.4668Z" fill="#745DDF"/>
</svg>

<svg xmlns="http://www.w3.org/2000/svg" width="42" height="42" fill="none"><rect width="42" height="42" fill="#F3F3F3" rx="21"/><path fill="#2EB6EA" d="M20.233 31.608c5.862 0 10.613-4.752 10.613-10.614 0-5.861-4.751-10.613-10.613-10.613-5.862 0-10.614 4.752-10.614 10.613 0 5.862 4.752 10.614 10.614 10.614Z"/><path fill="#1542CD" d="M20.175 31.609c-10.556 0-14.722-13.888-5.398-19.74-1.109 11.607 4.79 11.864 10.264 11.607 9.172-.43 9.178 8.133 9.178 8.133H20.175Z"/><path fill="#745DDF" fill-rule="evenodd" d="M30.265 24.467c-1.597 4.092-5.524 7.019-10.15 7.15.109.002.218.004.328.004H34.4s-.004-5.02-4.134-7.154Z" clip-rule="evenodd"/></svg>
